X: 27
T: Królu niebieski, zdrowie dusze mojej,
C: Mikołaj Gomółka
%%abc-version 2.0
%%abcx-abcm2ps-target-version 5.9.1 (29 Sep 2008)
%%abc-creator hum2abc beta
%%abcx-conversion-date 2021/10/04 07:59:10
%%abc-edited-by Anna Matuszewska
%%abcx-initial-encoding-date 2020-02-06
%%humdrum-veritas 4220523651
%%humdrum-veritas-data 535447373
%%linebreak <none>
%%barnumbers 0
L: 1/4
M: C|
N: Derived from pl-wn--sd-xvi-qu-273--028_gomolka-mikolaj--krolu-niebieski-zdrowie-dusze-mojej.krn
%%staves [1 2 3 4]
V: 1 clef=treble
V: 2
V: 3 clef=alto
V: 4
K: F
[V:1] G4G2G2 [I:setbarnb 3][|] 
[V:2] D4D2G2 [|] 
[V:3] G,4G,2G,4 [|] 
[V:4] G,4D3C [|] 
[V:1] d4d2d3 [|] 
[V:2] BAG^FGAG2 [|] 
[V:3] DCB,A,B,2 [|] 
[V:4] B,2>A,2G,^F,G,2 [|] 
[V:1] cBAB4 [|] 
[V:2] F2^F2G3F [|] 
[V:3] A,2D2D2D2 [|] 
[V:4] D,2D,2G,2G,2 [|] 
[V:1] A2G2A4 [|] 
[V:2] E2DEFE/D/ E/F/E [|] 
[V:3] ^C2D3C/B,/ C/DC/ [|] 
[V:4] A,2B,2A,4 [|] 
[V:1] A2d2e2f2 [|] 
[V:2] ^F2A2c2=F2 [|] 
[V:3] D2F2E2DC [|] 
[V:4] D,2D2C2B,A, [|] 
[V:1] g4f2d2 [|] 
[V:2] B4A2B2 [|] 
[V:3] B,CDEFDG2 [|] 
[V:4] G,A,B,CD2G,2 [|] 
[V:1] f2>e2d2^c2 [|] 
[V:2] A4A3G [|] 
[V:3] F4F2E2 [|] 
[V:4] D,2>E,2F,G,A,2 [|] 
[V:1] d2d2B2B2 [|] 
[V:2] ^F2G2G3F [|] 
[V:3] D2B,2B,2B,2 [|] 
[V:4] D,2G,2>F,2_E,D, [|] 
[V:1] e4d2d2 [|] 
[V:2] _EDEFGABA [|] 
[V:3] C4B,2D2 [|] 
[V:4] C,B,,C,2G,2G,2 [|] 
[V:1] cBB2B2A2 [|] 
[V:2] GFDE2<F2E [|] 
[V:3] EDDC/B,/C2C2 [|] 
[V:4] _E,2G,2F,2F,2 [|] 
[V:1] B4F3G [|] 
[V:2] D4D4 [|] 
[V:3] B,4A,3B, [|] 
[V:4] B,,4D,4 [|] 
[V:1] AGG4F2 [|] 
[V:2] _E2C2D4 [|] 
[V:3] CB,A,G,A,4 [|] 
[V:4] C,2_E,2D,4 [|] 
[V:1] G8 [|] 
[V:2] D8 [|] 
[V:3] G,8 [|] 
[V:4] G,8 [|] 


